X:9
T:Blair Drummond
T:aka Rob an Lugi
R:reel
O:1th century Scotland
D:i. Kinnon & Betty Beaton, Cape Breton Fiddle, 
Z:Paul Stewart Cranford (P.S.C.), <http://www.cranfordpub.com>
L:1/8
M:C|
Q:300
K:Amix
A/A/A c2 e<ae>c|A/A/A c2 B<gB>G|A/A/A c2 e<ae>f|g>be<g d<gB>G:|
|:a2 e>c a>ce<c|a2 e>f g>dB<G|a2 e>c a>ce>f|g>be<g d<gB>G:|
|:c2 A>B c>Ac<a|c2 A>c B<gB<G|c2 A>B c>ae>f|g>be<g d<gB>G:|
|:a2 e>c a>ce<c|a2 e>f g>dB<G|a2 e>c a>ce>f|g>be<g d<gB>G:|
